X:203
T:So Handy, My Boys
M:6/8
L:1/8
Q:1/4=3D115
K:Bb Mix
(E/F/)|\
G2G E2F |G2G E2F|GGG E2F|G3 B2G|
B2B G2=3DA|B2B G2B|BBB B2A|G3 B3 ||
